X:1
T:Rock Road to Dublin
M:9/8
L:1/8
K:G
 B2 B| B2 B A2 F E3| B,2 E E2 EF-G A| B2 B A2 F E3| F2 D D2 E FGA|\
 B2 B A2 F E3| B,2 E E2 EF-G A| B2 B A2 F E2 G| F2 D D2 E FGA| B2 e e2 ^c d2 B|\
 B2 e e2 ^c d2 A| B2 e e2 ^c d2 B| A2 F D2 EF G A/2A/2| B2 e e2 ^c d2 B|\
 B2 e e2 ^c d2 B| B2 e e2 ^c dcB| A2 D D2E-F GA| B2 B A2 F E3| B,2 E E2 EF-G A|\
 B2 d ^c2 e d2 B| A2 D D2 EF-G A| B2 B A2 F E3-| E6||
